build/img/group-1.svg

<svg width="800" height="93" fill="none" xmlns="http://www.w3.org/2000/svg"><path opacity=".6" fill="#000" d="M0 0h800v93H0z"/><path d="M43 39v-4l-5 5 5 5v-4c3.3 0 6 2.7 6 6s-2.7 6-6 6-6-2.7-6-6h-2c0 4.4 3.6 8 8 8s8-3.6 8-8-3.6-8-8-8z" fill="#fff"/><path opacity=".2" fill="#fff" d="M93 45h540v3H93z"/><path fill-rule="evenodd" clip-rule="evenodd" d="M210.494 41.947a4.533 4.533 0 110 9.065 4.533 4.533 0 010-9.065z" fill="#fff"/><path d="M738 36v6h3v-3h3v-3h-6zm3 14h-3v6h6v-3h-3v-3zm14-14h-3v3h3v3h3v-6h-3zm0 17h-3v3h6v-6h-3v3zm-51-17h-26c-1.7 0-3 1.3-3 3v14c0 1.7 1.3 3 3 3h26c1.7 0 3-1.3 3-3V39c0-1.7-1.3-3-3-3zm-14.6 15.9c-.5.1-1.1.1-1.7.1-.7 0-1.4-.1-2-.3-.6-.2-1.2-.6-1.6-1-.4-.4-.8-1.1-1.1-1.9-.3-.8-.4-1.7-.4-2.8 0-1.1.2-2.1.5-2.9.3-.8.7-1.4 1.2-1.9s1.1-.8 1.7-1c.5-.1 1.2-.2 1.8-.2.7 0 1.2 0 1.7.1s.8.2 1.1.3l-.4 1.9-.9-.3H688c-.9 0-1.6.3-2.2 1-.6.7-.8 1.7-.8 3 0 .6.1 1.1.2 1.6s.3.9.6 1.3c.3.3.6.6 1 .8.4.2.9.3 1.4.3.5 0 .9 0 1.3-.1.3-.1.6-.2.9-.4l.5 1.8c-.5.3-1 .4-1.5.6zm8.7 0c-.5.1-1.1.1-1.7.1-.7 0-1.4-.1-2-.3-.6-.2-1.2-.6-1.6-1-.5-.5-.9-1.1-1.1-1.9-.3-.8-.4-1.7-.4-2.8 0-1.1.2-2.1.5-2.9.3-.8.7-1.4 1.2-1.9s1.1-.8 1.7-1c.5-.1 1.2-.2 1.8-.2.7 0 1.2 0 1.7.1s.8.2 1.1.3l-.4 1.9-.9-.3h-1.3c-.9 0-1.6.3-2.2 1-.6.7-.8 1.7-.8 3 0 .6.1 1.1.2 1.6s.3.9.6 1.3c.3.3.6.6 1 .8.4.2.9.3 1.4.3.5 0 .9 0 1.3-.1.3-.1.6-.2.9-.4l.5 1.8c-.5.3-1 .4-1.5.6z" fill="#fff"/></svg>

<svg width="800" height="93" viewBox="0 0 800 93" fill="none" xmlns="http://www.w3.org/2000/svg">
<rect opacity="0.6" width="800" height="93" fill="black"/>
<path d="M43 39V35L38 40L43 45V41C46.3 41 49 43.7 49 47C49 50.3 46.3 53 43 53C39.7 53 37 50.3 37 47H35C35 51.4 38.6 55 43 55C47.4 55 51 51.4 51 47C51 42.6 47.4 39 43 39Z" fill="white"/>
<rect opacity="0.2" x="93" y="45" width="540" height="3" fill="white"/>
<path fill-rule="evenodd" clip-rule="evenodd" d="M210.494 41.947C212.998 41.947 215.027 43.9765 215.027 46.4802C215.027 48.9839 212.998 51.0136 210.494 51.0136C207.99 51.0136 205.961 48.9839 205.961 46.4802C205.961 43.9765 207.99 41.947 210.494 41.947Z" fill="white"/>
<path d="M738 36V39V42H741V39H744V36H741H738Z" fill="white"/>
<path d="M741 50H738V53V56H741H744V53H741V50Z" fill="white"/>
<path d="M755 36H752V39H755V42H758V39V36H755Z" fill="white"/>
<path d="M755 53H752V56H755H758V53V50H755V53Z" fill="white"/>
<path d="M704 36H678C676.3 36 675 37.3 675 39V53C675 54.7 676.3 56 678 56H704C705.7 56 707 54.7 707 53V39C707 37.3 705.7 36 704 36ZM689.4 51.9C688.9 52 688.3 52 687.7 52C687 52 686.3 51.9 685.7 51.7C685.1 51.5 684.5 51.1 684.1 50.7C683.7 50.3 683.3 49.6 683 48.8C682.7 48 682.6 47.1 682.6 46C682.6 44.9 682.8 43.9 683.1 43.1C683.4 42.3 683.8 41.7 684.3 41.2C684.8 40.7 685.4 40.4 686 40.2C686.5 40.1 687.2 40 687.8 40C688.5 40 689 40 689.5 40.1C690 40.2 690.3 40.3 690.6 40.4L690.2 42.3C689.9 42.2 689.6 42.1 689.3 42C688.9 42 688.5 42 688 42C687.1 42 686.4 42.3 685.8 43C685.2 43.7 685 44.7 685 46C685 46.6 685.1 47.1 685.2 47.6C685.3 48.1 685.5 48.5 685.8 48.9C686.1 49.2 686.4 49.5 686.8 49.7C687.2 49.9 687.7 50 688.2 50C688.7 50 689.1 50 689.5 49.9C689.8 49.8 690.1 49.7 690.4 49.5L690.9 51.3C690.4 51.6 689.9 51.7 689.4 51.9ZM698.1 51.9C697.6 52 697 52 696.4 52C695.7 52 695 51.9 694.4 51.7C693.8 51.5 693.2 51.1 692.8 50.7C692.3 50.2 691.9 49.6 691.7 48.8C691.4 48 691.3 47.1 691.3 46C691.3 44.9 691.5 43.9 691.8 43.1C692.1 42.3 692.5 41.7 693 41.2C693.5 40.7 694.1 40.4 694.7 40.2C695.2 40.1 695.9 40 696.5 40C697.2 40 697.7 40 698.2 40.1C698.7 40.2 699 40.3 699.3 40.4L698.9 42.3C698.6 42.2 698.3 42.1 698 42C697.6 42 697.2 42 696.7 42C695.8 42 695.1 42.3 694.5 43C693.9 43.7 693.7 44.7 693.7 46C693.7 46.6 693.8 47.1 693.9 47.6C694 48.1 694.2 48.5 694.5 48.9C694.8 49.2 695.1 49.5 695.5 49.7C695.9 49.9 696.4 50 696.9 50C697.4 50 697.8 50 698.2 49.9C698.5 49.8 698.8 49.7 699.1 49.5L699.6 51.3C699.1 51.6 698.6 51.7 698.1 51.9Z" fill="white"/>
</svg>
